elevenfeat/templates/feat/toolbar/icons/test.svg

<?xml version="1.0" encoding="UTF-8" standalone="no"?>
<svg width="16px" height="13px" viewBox="0 0 16 13" version="1.1" xmlns="http://www.w3.org/2000/svg" xmlns:xlink="http://www.w3.org/1999/xlink">
  <path d="M3.42857135,10 C3.42857135,10.6339288 2.9196429,11.1428573 2.28571406,11.1428573 C1.65178575,11.1428573 1.1428573,10.6339288 1.1428573,10 C1.1428573,9.36607169 1.65178575,8.85714324 2.28571406,8.85714324 C2.9196429,8.85714324 3.42857135,9.36607169 3.42857135,10 Z M5.1428573,6 C5.1428573,6.63392884 4.63392831,7.1428573 4,7.1428573 C3.36607116,7.1428573 2.8571427,6.63392884 2.8571427,6 C2.8571427,5.36607169 3.36607116,4.85714324 4,4.85714324 C4.63392831,4.85714324 5.1428573,5.36607169 5.1428573,6 Z M8.96428578,10.2946428 C9.54464295,10.6964285 9.84821432,11.4285716 9.66071427,12.1517857 C9.41964256,13.0625003 8.48214289,13.6160714 7.56249973,13.3750002 C6.65178562,13.1339285 6.09821402,12.1964288 6.33928573,11.2767857 C6.53571429,10.5535716 7.15178555,10.0625002 7.85714257,10.0089285 L8.75892869,6.59821422 C8.83928539,6.29464285 9.15178582,6.1071428 9.45535719,6.18750004 C9.75892856,6.26785728 9.93750007,6.58035717 9.86607136,6.88392854 L8.96428578,10.2946428 Z M14.8571427,10 C14.8571427,10.6339288 14.3482142,11.1428573 13.7142854,11.1428573 C13.0803571,11.1428573 12.5714286,10.6339288 12.5714286,10 C12.5714286,9.36607169 13.0803571,8.85714324 13.7142854,8.85714324 C14.3482142,8.85714324 14.8571427,9.36607169 14.8571427,10 Z M9.1428573,4.28571459 C9.1428573,4.9196429 8.63392831,5.42857135 8,5.42857135 C7.36607116,5.42857135 6.8571427,4.9196429 6.8571427,4.28571459 C6.8571427,3.65178575 7.36607116,3.1428573 8,3.1428573 C8.63392831,3.1428573 9.1428573,3.65178575 9.1428573,4.28571459 Z M13.1428573,6 C13.1428573,6.63392884 12.6339283,7.1428573 12,7.1428573 C11.3660712,7.1428573 10.8571427,6.63392884 10.8571427,6 C10.8571427,5.36607169 11.3660712,4.85714324 12,4.85714324 C12.6339283,4.85714324 13.1428573,5.36607169 13.1428573,6 Z M16,10 C16,5.58928583 12.4107142,2 8,2 C3.58928583,2 0,5.58928583 0,10 C0,11.5357144 0.437499742,13.0267857 1.25892862,14.3124999 C1.36607143,14.4732144 1.54464295,14.5714286 1.74107151,14.5714286 L14.2589285,14.5714286 C14.4553571,14.5714286 14.6339286,14.4732144 14.7410714,14.3124999 C15.5624997,13.0178572 16,11.5357144 16,10 Z" id="Shape" fill="#ffffff"></path>
</svg>

<svg width="16" height="13" viewBox="0 0 16 13" xmlns="http://www.w3.org/2000/svg"><path d="M3.429 10a1.14 1.14 0 0 1-1.143 1.143A1.14 1.14 0 0 1 1.143 10a1.14 1.14 0 0 1 1.143-1.143A1.14 1.14 0 0 1 3.429 10zm1.714-4A1.14 1.14 0 0 1 4 7.143 1.14 1.14 0 0 1 2.857 6 1.14 1.14 0 0 1 4 4.857 1.14 1.14 0 0 1 5.143 6zm3.821 4.295c.58.401.884 1.134.697 1.857a1.722 1.722 0 0 1-2.099 1.223 1.722 1.722 0 0 1-1.223-2.098 1.709 1.709 0 0 1 1.518-1.268l.902-3.41a.574.574 0 0 1 .696-.411c.304.08.483.392.411.696l-.902 3.41zM14.857 10a1.14 1.14 0 0 1-1.143 1.143A1.14 1.14 0 0 1 12.571 10a1.14 1.14 0 0 1 1.143-1.143A1.14 1.14 0 0 1 14.857 10zM9.143 4.286A1.14 1.14 0 0 1 8 5.429a1.14 1.14 0 0 1-1.143-1.143A1.14 1.14 0 0 1 8 3.143a1.14 1.14 0 0 1 1.143 1.143zm4 1.714A1.14 1.14 0 0 1 12 7.143 1.14 1.14 0 0 1 10.857 6 1.14 1.14 0 0 1 12 4.857 1.14 1.14 0 0 1 13.143 6zM16 10c0-4.41-3.59-8-8-8s-8 3.59-8 8c0 1.536.437 3.027 1.259 4.312.107.161.286.26.482.26H14.26a.578.578 0 0 0 .482-.26A8.02 8.02 0 0 0 16 10z" fill="#fff"/></svg>
